build/img/svg/icon-shades.svg

<svg width="43" height="43" viewBox="0 0 43 43" fill="none" xmlns="http://www.w3.org/2000/svg">
<path d="M0 36.0927C0.590086 34.0079 1.19027 31.9232 1.76802 29.8395C4.37217 20.4201 6.97334 10.9992 9.57151 1.57681C9.90806 0.345109 10.9256 -0.243134 12.1517 0.0938097C14.6946 0.79324 17.234 1.50018 19.7701 2.21464C21.049 2.57525 21.5853 3.60411 21.2173 4.93611C20.0072 9.30849 18.7979 13.6813 17.5893 18.0544C17.5713 18.1186 17.5624 18.1862 17.5287 18.3598C18.075 17.8662 18.5496 17.4425 19.0207 17.0075C21.9884 14.3097 24.9549 11.6111 27.9203 8.91182C28.894 8.0272 30.0282 8.07566 30.9156 9.05381C32.6791 10.9958 34.4366 12.9431 36.1882 14.8957C37.0935 15.9031 37.0128 17.0537 36.0031 17.9721C31.4372 22.1214 26.8751 26.2729 22.3167 30.4266C22.2045 30.5292 22.0923 30.6351 21.8803 30.8368H22.4536C28.5272 30.8368 34.6012 30.8368 40.6756 30.8368C40.9821 30.8251 41.2889 30.8547 41.5876 30.9247C41.9965 31.034 42.3573 31.2775 42.6126 31.6165C42.8679 31.9554 43.0031 32.3704 42.9966 32.7954C43.0011 35.5375 43.0011 38.2797 42.9966 41.0218C42.999 41.5408 42.7968 42.0396 42.4342 42.4094C42.0716 42.7791 41.5781 42.9896 41.0615 42.995C40.5308 43.0063 39.998 42.995 39.4662 42.995C28.3226 42.995 17.1824 42.995 6.04558 42.995C4.72111 42.9928 3.4338 42.555 2.38038 41.7485C1.32696 40.942 0.565382 39.8113 0.212029 38.5291C0.142475 38.2766 0.0751639 38.0242 0.00785368 37.7718L0 36.0927ZM16.3788 17.6115L17.4244 13.7947L15.423 13.2312C14.603 13.0059 13.7818 12.7805 12.9651 12.5472C12.5825 12.4345 12.3772 12.1156 12.4513 11.7933C12.5343 11.4271 12.8428 11.2355 13.2523 11.2997C13.3339 11.3182 13.4144 11.3411 13.4935 11.3685L17.7733 12.5506C18.1266 11.2716 18.471 10.0218 18.8255 8.73603L9.62087 6.17232L8.57083 9.98689C8.97021 10.0996 9.33144 10.1942 9.69267 10.2968C10.0539 10.3993 10.4163 10.5041 10.7775 10.6089C11.3911 10.787 11.6076 11.0529 11.4921 11.4879C11.3799 11.897 11.0288 12.0108 10.414 11.8395C9.69379 11.6389 8.97357 11.4417 8.22306 11.2344L7.17415 15.0456L16.3788 17.6115ZM26.039 32.1486H22.1439V41.7002H26.0479C26.0479 41.3892 26.0479 41.1097 26.0479 40.8291C26.058 40.3389 26.2914 40.0617 26.6896 40.0572C27.0879 40.0526 27.3257 40.3186 27.3436 40.8167C27.3537 41.1063 27.3436 41.397 27.3436 41.7024H31.2465V32.1463H27.3448V32.5802C27.3448 34.3644 27.3448 36.1487 27.3448 37.9329C27.3448 38.5032 27.1204 38.7871 26.702 38.7894C26.2835 38.7916 26.0502 38.502 26.0468 37.9453C26.0468 37.2692 26.0468 36.5931 26.0468 35.9225L26.039 32.1486ZM10.3647 32.1238C8.94328 32.1238 7.56006 32.1238 6.17683 32.1238C3.6067 32.1316 1.68388 33.8085 1.30807 36.3643C0.941225 38.8694 2.89658 41.4579 5.40613 41.6472C7.00587 41.7678 8.61907 41.7069 10.23 41.7261C10.2782 41.7187 10.3251 41.7042 10.3691 41.6833L10.3647 32.1238ZM11.6884 41.7024H15.5935V32.1508H11.6884V41.7024ZM16.9128 32.1407V41.7081H20.7977V32.1407H16.9128ZM32.5938 32.1407V41.6991H36.4765V32.1407H32.5938ZM18.7425 19.001L25.1572 26.1117L28.074 23.4522L21.6582 16.3404C20.6721 17.2441 19.7208 18.1107 18.7425 19.001ZM17.7923 19.8619L14.8756 22.5259C17.0373 24.9217 19.1554 27.2691 21.2891 29.6356L24.2059 26.9738C22.0576 24.5904 19.9384 22.242 17.7923 19.8574V19.8619ZM25.533 12.8188L22.6162 15.4794L29.0286 22.5902L31.9454 19.9296L25.533 12.8188ZM37.8048 32.1249V41.7193C38.9131 41.7193 40.0002 41.7408 41.085 41.7081C41.5192 41.6945 41.7301 41.37 41.7334 40.8764C41.7402 40.0335 41.7334 39.1861 41.7334 38.3476C41.7334 36.5638 41.7334 34.7787 41.7334 32.9949C41.7334 32.4573 41.4833 32.1384 41.0267 32.1316C39.9654 32.1147 38.9042 32.1249 37.8048 32.1249ZM26.4854 11.9533L32.9012 19.0686C33.7258 18.3113 34.5492 17.5754 35.3457 16.8148C35.6329 16.5398 35.5981 16.1668 35.2997 15.8355C33.513 13.8439 31.7222 11.8564 29.9272 9.87307C29.5907 9.50683 29.2216 9.47865 28.8559 9.80207C28.0706 10.4974 27.3044 11.2118 26.4854 11.9545V11.9533ZM9.97088 4.93048L19.1767 7.49531C19.4571 6.46982 19.732 5.47702 20.0012 4.48084C20.1482 3.93767 19.9721 3.61426 19.4403 3.45874C18.959 3.31788 18.4744 3.19054 17.9909 3.05644C15.9649 2.49073 13.9384 1.9254 11.9117 1.36045C11.3261 1.19705 10.9727 1.3334 10.8313 1.81121C10.5385 2.8412 10.2659 3.86217 9.97088 4.9316V4.93048ZM5.79541 20.049C5.84029 20.0907 5.85711 20.12 5.88067 20.1268C8.28252 20.8029 10.6833 21.47 13.0885 22.1236C13.2231 22.1608 13.4374 22.0752 13.554 21.9749C14.0959 21.5095 14.585 20.9776 15.1526 20.5493C15.7203 20.1211 15.8998 19.516 16.0131 18.8376L6.83423 16.2851L5.79541 20.049ZM13.922 23.3835L11.0232 26.0261C11.0575 26.0815 11.095 26.1349 11.1354 26.1861C12.4816 27.6849 13.8278 29.1871 15.1953 30.6746C15.2962 30.7873 15.5128 30.8335 15.6754 30.8357C16.9891 30.8481 18.3039 30.8549 19.6176 30.8357C19.8599 30.8357 20.0999 30.6768 20.4028 30.5686L13.922 23.3835ZM4.38639 25.1516C5.82458 25.555 7.19097 25.9404 8.56186 26.3112C8.63108 26.3158 8.70051 26.306 8.76577 26.2823C8.83103 26.2587 8.89071 26.2217 8.94104 26.1737C9.95069 25.2722 10.9603 24.3504 11.9599 23.4342C12.0281 23.3631 12.0918 23.2879 12.1506 23.2088L5.43978 21.3382C5.09202 22.6195 4.74201 23.8669 4.38639 25.1539V25.1516ZM10.0505 26.9062L5.75839 30.8177H13.5765L10.0505 26.9062ZM4.0431 26.3935L2.49609 31.993L7.61503 27.3919L4.0431 26.3935Z" fill="white"/>
<path d="M8.56295 36.9179C8.56149 37.5633 8.30647 38.182 7.85333 38.6395C7.4002 39.097 6.7856 39.3563 6.14315 39.361C5.50777 39.3496 4.90144 39.0917 4.45104 38.6413C4.00064 38.191 3.74109 37.5831 3.72672 36.945C3.72638 36.2999 3.97934 35.6807 4.4307 35.2218C4.88207 34.7629 5.49539 34.5014 6.13754 34.4939C6.45559 34.4919 6.7709 34.553 7.0653 34.674C7.35969 34.7949 7.62734 34.9732 7.85281 35.1985C8.07829 35.4238 8.25712 35.6918 8.379 35.9869C8.50089 36.282 8.5634 36.5984 8.56295 36.9179ZM6.1611 38.0448C6.45815 38.0452 6.74344 37.9283 6.95557 37.7195C7.1677 37.5106 7.28969 37.2264 7.29528 36.9281C7.29122 36.6226 7.16869 36.3307 6.95374 36.1146C6.73879 35.8985 6.44838 35.7751 6.14427 35.7707C5.9933 35.7723 5.84416 35.8041 5.7056 35.8644C5.56704 35.9246 5.44184 36.012 5.33736 36.1215C5.23287 36.231 5.1512 36.3603 5.09712 36.5019C5.04304 36.6435 5.01765 36.7945 5.02244 36.9461C5.02202 37.0945 5.05149 37.2415 5.10909 37.3782C5.16668 37.515 5.2512 37.6386 5.35757 37.7416C5.46394 37.8447 5.58995 37.9251 5.72803 37.9779C5.86612 38.0308 6.01343 38.0551 6.1611 38.0493V38.0448Z" fill="white"/>
</svg>

<svg width="43" height="43" fill="none" xmlns="http://www.w3.org/2000/svg"><path d="M0 36.093c.59-2.085 1.19-4.17 1.768-6.254C4.372 20.42 6.973 11 9.572 1.578c.336-1.232 1.354-1.82 2.58-1.483 2.543.7 5.082 1.406 7.618 2.12 1.279.361 1.815 1.39 1.447 2.722-1.21 4.372-2.42 8.745-3.628 13.118-.018.065-.027.132-.06.306.546-.494 1.02-.918 1.492-1.352l8.9-8.096c.973-.885 2.107-.836 2.995.142 1.763 1.942 3.52 3.89 5.272 5.842.905 1.007.825 2.158-.185 3.076-4.566 4.15-9.128 8.3-13.686 12.455a30.05 30.05 0 00-.437.41h18.796c.306-.012.613.018.912.088.408.109.77.352 1.025.691.255.34.39.754.384 1.18.004 2.742.004 5.484 0 8.226.002.519-.2 1.018-.563 1.387-.362.37-.856.58-1.372.586-.531.011-1.064 0-1.596 0H6.046A6.045 6.045 0 012.38 41.75a6.092 6.092 0 01-2.168-3.22c-.07-.252-.137-.505-.204-.757L0 36.092zM16.379 17.61l1.045-3.816-2.001-.564c-.82-.225-1.641-.45-2.458-.684-.383-.113-.588-.431-.514-.754.083-.366.392-.557.801-.493.082.018.162.041.241.068l4.28 1.183 1.053-3.815L9.62 6.172 8.57 9.987c.4.113.76.207 1.122.31.36.102.723.207 1.085.312.613.178.83.444.714.879-.112.409-.463.523-1.078.351-.72-.2-1.44-.397-2.19-.605l-1.05 3.812 9.205 2.566zm9.66 14.538h-3.895V41.7h3.904v-.87c.01-.491.243-.768.642-.773.398-.004.636.262.654.76.01.29 0 .58 0 .885h3.902v-9.556h-3.901v5.787c0 .57-.225.854-.643.856-.419.003-.652-.287-.655-.844v-2.023l-.008-3.773zm-15.674-.025H6.177c-2.57.008-4.493 1.684-4.869 4.24-.367 2.505 1.589 5.094 4.098 5.283 1.6.12 3.213.06 4.824.08a.502.502 0 00.14-.044l-.005-9.56zm1.323 9.578h3.905V32.15h-3.905v9.551zm5.225-9.561v9.567h3.885V32.14h-3.885zm15.68 0v9.558h3.883V32.14h-3.882zM18.744 19l6.414 7.11 2.917-2.659-6.416-7.112c-.986.904-1.937 1.77-2.916 2.661zm-.95.86l-2.917 2.665c2.161 2.396 4.28 4.743 6.413 7.11l2.917-2.662c-2.148-2.384-4.268-4.732-6.414-7.117v.005zm7.74-7.042l-2.917 2.66 6.413 7.111 2.916-2.66-6.412-7.111zm12.272 19.306v9.594c1.108 0 2.195.022 3.28-.01.434-.015.645-.339.648-.833.007-.843 0-1.69 0-2.528v-5.353c0-.538-.25-.857-.706-.863-1.062-.017-2.123-.007-3.222-.007zm-11.32-20.172l6.416 7.116c.825-.758 1.648-1.494 2.445-2.254.287-.275.252-.648-.046-.98a1834.85 1834.85 0 00-5.373-5.962c-.336-.366-.705-.394-1.071-.07-.785.694-1.552 1.409-2.37 2.151zM9.971 4.93l9.206 2.565c.28-1.025.555-2.018.824-3.014.147-.543-.029-.867-.56-1.022-.482-.141-.967-.268-1.45-.403L11.91 1.36c-.585-.163-.938-.027-1.08.451-.292 1.03-.565 2.051-.86 3.12zM5.795 20.05c.045.042.062.071.086.078 2.402.676 4.802 1.343 7.207 1.997.135.037.35-.049.466-.15.542-.465 1.031-.996 1.599-1.425.567-.428.747-1.033.86-1.711l-9.179-2.553-1.039 3.764zm8.127 3.335l-2.899 2.642c.034.055.072.109.112.16 1.347 1.499 2.693 3.001 4.06 4.489.101.112.318.159.48.16 1.314.013 2.629.02 3.943 0 .242 0 .482-.158.785-.266l-6.481-7.185zm-9.536 1.768c1.439.403 2.805.788 4.176 1.16a.5.5 0 00.379-.138c1.01-.902 2.02-1.824 3.019-2.74.068-.07.132-.146.19-.225l-6.71-1.87c-.348 1.28-.698 2.528-1.054 3.815v-.002zm5.664 1.754l-4.292 3.912h7.818l-3.526-3.912zm-6.007-.512l-1.547 5.599 5.119-4.601-3.572-.998z" fill="#fff"/><path d="M8.563 36.918a2.454 2.454 0 01-.71 1.721 2.432 2.432 0 01-1.71.722 2.455 2.455 0 01-1.692-.72 2.478 2.478 0 01-.724-1.696c0-.645.252-1.264.704-1.723a2.434 2.434 0 011.707-.728 2.4 2.4 0 011.715.705 2.42 2.42 0 01.71 1.719zm-2.402 1.127a1.14 1.14 0 001.134-1.117 1.176 1.176 0 00-.341-.813 1.166 1.166 0 00-.81-.344 1.13 1.13 0 00-1.047.73c-.054.143-.08.294-.075.445a1.105 1.105 0 00.706 1.032c.138.053.285.077.433.071v-.004z" fill="#fff"/></svg>
